X:1
T:1. Ah! cruel Amarillis 
C:John Wilbye
%#Voices: 3
%#Instrument: Recorders
%#Voicing: TrTrB
%#Notes: Book of scores and partbooks
%%transpose 5
%%score [1 2 3]
L:1/4
M:4/4
I:linebreak $
K:C
V:1 treble nm="Treble I"
%%MIDI program 73
V:2 treble nm="Treble II"
%%MIDI program 73
V:3 bass nm="Bass" octave=-1
%%MIDI program 73
V:1
 z2 _B2- | B2 A2 | G2 z ^F/F/ | G2 D2 | z2 c2- | c2 B2 |$ A2 z ^G/G/ | A2 E2 | e3/2 e/ d c | B3 B | %10
w: Ah!|_ cru-|el A- ma-|ril- lis,|Ah!|_ cru-|el A- ma-|ril- lis,|since thou tak'st de-|light To|
 B B c>B |$ A A B3/2 A/ | ^G E z e | d B c3/2 B/ | A A B3/2 A/ |$ ^G/^F/ G A2- | A D2 E | %17
w: hear the acc- ents|of a dole- ful|dit- ty, to|hear the acc- ents|of a dole- ful|dit- -- ty,|_ of a|
 ^C D D C | D2 z E |$ ^F F z E | ^F F z A | B B z A | B B2 B/c/ |$ d d d d | c e d B | c A c2- | %26
w: dole- ful dit- -|ty, To|tri- umph, to|tri- umph, to|tri- umph, to|tri- umph, to_|tri- umph still with-|out re- morse or|pi- ty; I|
 c2 B A | ^G2 A2 |$ B4- | B A A2- | A2 ^G2 | A2 z2 | e4- | e2 d c |$ B2 e2 | d2 c2 | e2 d2 | %37
w: _ loathe this|life, death|must|_ my sor-|- rows|right,|I|_ loathe this|life, death|must my|sor- rows|
 c G G G | c2 z A |$ A A d2 | z G B d | d3 ^c |$ d/A/A/B/ c2 | z/ G/G/A/ B2- |$ B B A G | ^F4 | %46
w: right; And lest vain|hope, and|lest vain hope|my mi- se-|ries re-|new, Come quick- ly, death,|come quick- ly, death,|_ 'Reave me of|breath.|
 z2 d2 | d4 | d2 z A/A/ | B2 G2 | z2 e2 |$ e4 | e2 z B/B/ | ^c2 A2 | G2 c2- | c2 B2 | z2 z d/d/ | %57
w: Ah!|cru-|el A- ma-|ril- lis,|Ah!|cru-|el A- ma-|ril- lis,|Ah! cru-|- el|A- ma-|
 e2 c2 |$ B4 | c3 ^c/c/ | d d2 ^F/F/ | G G2 d | e3 e/e/ |$ ^f2 d2- | d2 c2- | c2 B A/G/ | B2 z A | %67
w: ril- lis,|cru-|el A- ma-|ril- lis, A- ma-|ril- lis, cru-|el A- ma-|ril- lis,|_ cru-|- el, a- -|dieu, a-|
 G4- | G4 |] %69
w: dieu.|_|
V:2
 z2 d2 | d4 | d2 z A/A/ | B2 G2 | z2 e2 | e4 |$ e2 z B/B/ | ^c2 A2 | G3/2 G/ B A | ^G4 | z2 z e |$ %11
w: Ah!|cru-|el A- ma-|ril- lis,|Ah!|cru-|el A- ma-|ril- lis,|since thou tak'st de-|light|To|
 c c d3/2 c/ | B/A/ B A A- | A ^G A2 | z e e c |$ B B ^c c | d3/2 c/ B/A/G/^F/ | E F E2 | %18
w: hear the acc- ents|of_ a dole- ful|_ dit- ty,|to hear the|acc- ents of a|dole- --- ful _|dit- --|
 ^F F/G/ A A |$ z ^F/G/ A A | z A d d | z B/c/ d d | z B/c/ d d |$ B3 A | A A A ^G | A A e2- | %26
w: ty, To_ tri- umph,|to_ tri- umph,|to tri- umph,|to_ tri- umph,|to_  tri- umph|still with-|out re- morse or|pi- ty; I|
 e2 d c | B2 c2 |$ d4- | d2 c2 | B2 B2 | A2 c2- | c2 B A | ^G4- |$ G2 c2 | B A/B/ c2- | c B/A/ B2 | %37
w:_ loathe this|life, death|must|_ my|sor- rows|right, I|_ loathe this|life,|_ death|must my _ sor-|--- rows|
 c3 G | G G A2 |$ z A A A | B3 B | A A G G |$ ^F/D/F/G/ A2 | z/ E/E/^F/ G2- |$ G G ^F G | A4 | %46
w: right; And|lest vain hope,|and lest vain|hope my|mi- se- ries re-|new, Come quick- ly, death,|come quick- ly, death,|_ 'Reave me of|breath.|
 z2 _B2- | B2 A2 | G2 z ^F/F/ | G2 D2 | z2 c2- |$ c2 B2 | A2 z ^G/G/ | A2 E2 | z2 e2- | e2 d2 | %56
w: Ah!|_ cru-|el A- ma-|ril- lis,|Ah!|_ cru-|el A- ma-|ril- lis,|Ah!|_ cru-|
 c2 z B/B/ | c2 G A- |$ A ^G z G/G/ | A2 E2 | z2 A2 | B3 B/B/ | c c2 ^c/c/ |$ d d2 ^F/F/ | G3 A | %65
w: el A- ma-|ril- lis, cru|- el A- ma-|ril- lis,|cru-|el A- ma-|ril- lis, A- ma-|ril- lis, A- ma-|ril- lis,|
 ^F2 G2- | G2 ^F2 | G4- | G4 |] %69
w: cru- el,|_ a-|dieu.|_|
V:3
 G,4 | D3 C | B, C D2 | G,4 | A,4 | E3 D |$ ^C D E2 | A,4 | C3/2 C/ G, A, | E,4 | z E E E |$ %11
w: Ah!|cru- el|A- ma- ril-|lis,|Ah!|cru- el|A- ma- ril-|lis,|since thou tak'st de-|light|To hear the|
 F3/2 E/ D D | E3/2 D/ C/B,/ C | B,2 A,2- | A, A, ^G, A, |$ E3/2 D/ ^C/B,/A,/G,/ | ^F,2 G,2 | A,4 | %18
w: acc- ents of a|dole- --- ful|dit- ty,|_ to hear the|acc- ents of _ a _|dole- ful|dit-|
 D3 ^C |$ D D z A, | D D z D | G G z ^F | G G2 G, |$ G,3/2 A,/ B,/C/ D | A, C B, B, | A,2 A,2 | %26
w: ty, To|tri- umph, to|tri- umph, to|tri- umph, to|tri- umph still|with- ----|out re- morse or|pi- ty;|
 E4- | E2 D C |$ B,2 B,2 | C3 D | E2 E2 | A,2 A2- | A2 G F | E4- |$ E2 C2 | G2 E3/2 F/ | G2 G2 | %37
w: I|_ loathe this|life, death|must my|sor- rows|right, I|_ loathe this|life,|_ death|must my _|sor- rows|
 C3 C | C C F2- |$ F D D D | G3 G, | D F E E |$ D2 z/ A,/A,/B,/ | C2 z/ G,/G,/A,/ |$ B, G, D E | %45
w: right; And|lest vain hope,|_ and lest vain|hope my|mi- se- ries re-|new, Come quick- ly,|death, come quick- ly,|death, 'Reave me of|
 D4 | G4 | D3 C | B, C D2 | G,4 | A,4 |$ E3 D | ^C D E2 | A,4 | C4 | G3 F | E F G2 | C4 |$ E4 | %59
w: breath.|Ah!|cru- el|A- ma- ril-|lis,|Ah!|cru- el|A- ma- ril-|lis,|Ah!|cru- el|A- ma- ril-|lis,|cru-|
 A,3 A,/A,/ | D2 D2 | G,4 | C2 A, A, |$ D4 | B,2 C2 | D4 | D4 | G,4- | G,4 |] %69
w: el A- ma-|ril- lis,|cru-|el A- ma-|ril-|lis, a-|dieu,|a-|dieu.|_|

